build/images/logo-white.svg

<?xml version="1.0" encoding="UTF-8" standalone="no"?>
<svg width="268px" height="96px" viewBox="0 0 268 96" version="1.1" xmlns="http://www.w3.org/2000/svg" xmlns:xlink="http://www.w3.org/1999/xlink">
    <!-- Generator: Sketch 3.8.3 (29802) - http://www.bohemiancoding.com/sketch -->
    <title>Slice 1</title>
    <desc>Created with Sketch.</desc>
    <defs></defs>
    <g id="Page-1" stroke="none" stroke-width="1" fill="none" fill-rule="evenodd">
        <g id="logo" fill="#FFFFFF">
            <path d="M22.57,51.55 C10.35,51.55 0,45.35 0,32.01 C0,18.67 10.42,12.15 22.57,12.15 C32.02,12.15 40.42,15.41 43.82,24.93 L35,27.29 C33.05,21.87 27.85,19.79 22.57,19.79 C14.79,19.79 9.31,23.89 9.31,32.08 C9.31,40.27 15.07,43.96 22.57,43.96 C28.2,43.96 33.4,42.08 35.21,36.18 L44.1,38.55 C40.9,48.55 32.22,51.55 22.57,51.55 L22.57,51.55 Z M80.07,50.69 L80.07,46.55 C75.76,50.16 70.83,51.55 64.44,51.55 C54.17,51.55 46.6,48.82 46.6,40.07 C46.6,32.71 52.29,28.75 62.5,28.75 L80.07,28.75 L80.07,27.15 C80.07,21.25 73.33,19.79 68.75,19.79 C62.75,19.79 58.47,20.9 56.46,25.14 L48.33,22.99 C51.46,14.24 60.28,12.16 68.75,12.16 C78.26,12.16 89.1,15.56 89.1,27.02 L89.1,50.69 L80.1,50.69 L80.07,50.69 Z M63.13,34.99 C59.94,34.99 55.84,35.34 55.84,39.57 C55.84,43.39 60.56,43.95 63.41,43.95 L66.12,43.95 C75.22,43.95 80.12,40.82 80.12,34.95 L63.13,34.95 L63.13,34.99 Z M129.17,50.69 L129.17,30.35 C129.17,22.57 124.66,19.79 117.92,19.79 C110.14,19.79 104.38,24.44 104.38,32.08 L104.38,50.69 L95.38,50.69 L95.38,13.05 L104.38,13.05 L104.38,17.77 C108.279619,14.0003598 113.538916,11.9695065 118.96,12.14 C130.7,12.14 138.2,17.07 138.2,30.27 L138.2,50.69 L129.2,50.69 L129.17,50.69 Z M163.62,12.15 C169.211219,11.9790225 174.638221,14.0533112 178.69,17.91 L178.69,0 L187.69,0 L187.69,50.7 L178.69,50.7 L178.69,46.11 C174.9,50 170.63,51.55 163.76,51.55 C152.02,51.55 142.58,45.79 142.58,31.97 C142.58,18.4 151.9,12.15 163.62,12.15 L163.62,12.15 Z M165.36,43.96 C172.65,43.96 178.69,39.65 178.69,32.08 C178.69,24.3 172.93,19.79 165.36,19.79 C157.58,19.79 151.96,23.79 151.96,32.08 C151.96,40.37 157.9,43.96 165.36,43.96 L165.36,43.96 Z M236.9,35 L201.4,35 C202.1,41.46 208.48,44.1 214.6,44.1 C219.67,44.1 225.71,43.34 228,37.99 L236.47,39.99 C232.9,49.55 223.76,51.55 214.6,51.55 C201.34,51.55 191.96,45.3 191.96,32.04 C191.96,19.33 202.45,12.11 214.53,12.11 C227.1,12.11 236.89,18.99 236.89,32.11 L236.89,34.96 L236.9,35 Z M227.04,28.75 C225.58,22.5 220.51,20 214.4,20 C208.5,20 203.08,22.5 201.48,28.75 L227.04,28.75 L227.04,28.75 Z M265.99,20.48 C264.771645,20.0109034 263.475475,19.7767784 262.17,19.79 C255.5,19.79 250.5,22.64 250.5,30.35 L250.5,50.69 L241.5,50.69 L241.5,13.05 L250.5,13.05 L250.5,17.49 C253.574268,13.96073 258.039743,11.9545552 262.72,12 C264.50982,12.0322456 266.286609,12.3115515 268,12.83 L265.99,20.48 Z M111.35,91.34 L107.07,91.34 L107.07,94.91 L104.47,94.91 L104.47,84.55 L111.31,84.55 C113.31,84.55 115.13,85.64 115.13,87.97 C115.089218,88.9231131 114.664404,89.8191403 113.952323,90.4539852 C113.240242,91.0888301 112.301527,91.4084348 111.35,91.34 L111.35,91.34 Z M111.22,86.73 L107.07,86.73 L107.07,89.11 L111.26,89.11 C111.587551,89.1293016 111.908537,89.0125008 112.147084,88.7872064 C112.385631,88.5619119 112.520568,88.2481188 112.52,87.92 C112.527875,87.5823408 112.389448,87.2577515 112.140314,87.0296985 C111.891181,86.8016454 111.555649,86.6923803 111.22,86.73 L111.22,86.73 Z M124.9,94.91 L123.84,92.68 L118.84,92.68 L117.78,94.91 L114.9,94.91 L119.9,84.55 L122.65,84.55 L127.72,94.96 L124.9,94.96 L124.9,94.91 Z M121.35,87.06 L119.73,90.55 L122.9,90.55 L121.35,87.06 Z M138.2,94.91 L135.79,91.34 L132.46,91.34 L132.46,94.91 L129.9,94.91 L129.9,84.55 L137.04,84.55 C139.15,84.55 140.86,85.72 140.86,87.97 C140.866734,89.3726407 139.983445,90.6253061 138.66,91.09 L141.29,94.96 L138.29,94.96 L138.2,94.91 Z M136.9,86.73 L132.45,86.73 L132.45,89.11 L136.9,89.11 C137.227551,89.1293016 137.548537,89.0125008 137.787084,88.7872064 C138.025631,88.5619119 138.160568,88.2481188 138.16,87.92 C138.163547,87.5909443 138.029526,87.2753553 137.790284,87.0494048 C137.551043,86.8234543 137.228316,86.7076707 136.9,86.73 L136.9,86.73 Z M143.56,94.91 L143.56,84.55 L146.16,84.55 L146.16,94.96 L143.56,94.96 L143.56,94.91 Z M154.4,95.11 C151.92,95.11 149.31,94.59 148.68,91.9 L151.13,91.29 C151.5,92.58 152.6,92.94 154.68,92.94 C156.31,92.94 157.3,92.6 157.3,91.76 C157.3,89.76 149,91.91 149,87.67 C149,85.07 151.8,84.31 154.18,84.31 C156.56,84.31 158.91,84.74 159.8,87.31 L157.3,87.92 C156.91,86.82 155.75,86.45 154.13,86.45 C153.07,86.45 151.63,86.66 151.63,87.57 C151.63,89.77 159.94,87.57 159.94,91.7 C159.95,94.69 156.9,95.11 154.4,95.11 L154.4,95.11 Z" id="Shape"></path>
        </g>
    </g>
</svg>

<svg width="268" height="96" viewBox="0 0 268 96" xmlns="http://www.w3.org/2000/svg"><title>Slice 1</title><path d="M22.57 51.55C10.35 51.55 0 45.35 0 32.01s10.42-19.86 22.57-19.86c9.45 0 17.85 3.26 21.25 12.78L35 27.29c-1.95-5.42-7.15-7.5-12.43-7.5-7.78 0-13.26 4.1-13.26 12.29s5.76 11.88 13.26 11.88c5.63 0 10.83-1.88 12.64-7.78l8.89 2.37c-3.2 10-11.88 13-21.53 13zm57.5-.86v-4.14c-4.31 3.61-9.24 5-15.63 5-10.27 0-17.84-2.73-17.84-11.48 0-7.36 5.69-11.32 15.9-11.32h17.57v-1.6c0-5.9-6.74-7.36-11.32-7.36-6 0-10.28 1.11-12.29 5.35l-8.13-2.15c3.13-8.75 11.95-10.83 20.42-10.83 9.51 0 20.35 3.4 20.35 14.86v23.67h-9.03zm-16.94-15.7c-3.19 0-7.29.35-7.29 4.58 0 3.82 4.72 4.38 7.57 4.38h2.71c9.1 0 14-3.13 14-9H63.13v.04zm66.04 15.7V30.35c0-7.78-4.51-10.56-11.25-10.56-7.78 0-13.54 4.65-13.54 12.29v18.61h-9V13.05h9v4.72a20.07 20.07 0 0 1 14.58-5.63c11.74 0 19.24 4.93 19.24 18.13v20.42h-9.03zm34.45-38.54a20.93 20.93 0 0 1 15.07 5.76V0h9v50.7h-9v-4.59c-3.79 3.89-8.06 5.44-14.93 5.44-11.74 0-21.18-5.76-21.18-19.58 0-13.57 9.32-19.82 21.04-19.82zm1.74 31.81c7.29 0 13.33-4.31 13.33-11.88 0-7.78-5.76-12.29-13.33-12.29-7.78 0-13.4 4-13.4 12.29s5.94 11.88 13.4 11.88zM236.9 35h-35.5c.7 6.46 7.08 9.1 13.2 9.1 5.07 0 11.11-.76 13.4-6.11l8.47 2c-3.57 9.56-12.71 11.56-21.87 11.56-13.26 0-22.64-6.25-22.64-19.51 0-12.71 10.49-19.93 22.57-19.93 12.57 0 22.36 6.88 22.36 20v2.85l.01.04zm-9.86-6.25C225.58 22.5 220.51 20 214.4 20c-5.9 0-11.32 2.5-12.92 8.75h25.56zm38.95-8.27a10.34 10.34 0 0 0-3.82-.69c-6.67 0-11.67 2.85-11.67 10.56v20.34h-9V13.05h9v4.44A16 16 0 0 1 262.72 12a19.44 19.44 0 0 1 5.28.83l-2.01 7.65zM111.35 91.34h-4.28v3.57h-2.6V84.55h6.84c2 0 3.82 1.09 3.82 3.42a3.53 3.53 0 0 1-3.78 3.37zm-.13-4.61h-4.15v2.38h4.19a1.19 1.19 0 0 0 1.26-1.19 1.17 1.17 0 0 0-1.3-1.19zm13.68 8.18l-1.06-2.23h-5l-1.06 2.23h-2.88l5-10.36h2.75l5.07 10.41h-2.82v-.05zm-3.55-7.85l-1.62 3.49h3.17l-1.55-3.49zm16.85 7.85l-2.41-3.57h-3.33v3.57h-2.56V84.55h7.14c2.11 0 3.82 1.17 3.82 3.42a3.29 3.29 0 0 1-2.2 3.12l2.63 3.87h-3l-.09-.05zm-1.3-8.18h-4.45v2.38h4.45a1.19 1.19 0 0 0 1.26-1.19 1.18 1.18 0 0 0-1.26-1.19zm6.66 8.18V84.55h2.6v10.41h-2.6v-.05zm10.84.2c-2.48 0-5.09-.52-5.72-3.21l2.45-.61c.37 1.29 1.47 1.65 3.55 1.65 1.63 0 2.62-.34 2.62-1.18 0-2-8.3.15-8.3-4.09 0-2.6 2.8-3.36 5.18-3.36s4.73.43 5.62 3l-2.5.61c-.39-1.1-1.55-1.47-3.17-1.47-1.06 0-2.5.21-2.5 1.12 0 2.2 8.31 0 8.31 4.13.01 2.99-3.04 3.41-5.54 3.41z" fill="#FFF" fill-rule="evenodd"/></svg>
